img/metagov.svg

<svg width="200" height="200" viewBox="0 0 200 200" fill="none" xmlns="http://www.w3.org/2000/svg">
<path fill-rule="evenodd" clip-rule="evenodd" d="M192.933 7.06714H7.06714V192.933H192.933V7.06714ZM0 0V200H200V0H0Z" fill="white"/>
<path fill-rule="evenodd" clip-rule="evenodd" d="M42.7914 64.311C42.9525 61.5358 43.6616 58.9077 44.8122 56.5332L53.811 56.5332C53.4216 58.96 53.1871 61.58 53.1332 64.311H42.7914ZM56.6675 64.311C56.7257 61.5307 56.9819 58.9066 57.3934 56.5332L69.4197 56.5332C69.8312 58.9066 70.0874 61.5307 70.1456 64.311H64.3164C64.7064 64.5144 65.1357 64.7394 65.5968 64.9817C67.6778 66.0751 70.4269 67.5336 73.1732 68.9973C73.309 69.0696 73.4448 69.142 73.5805 69.2144C73.6081 68.7616 73.6307 68.3048 73.6481 67.8445H83.9283C83.6905 69.9733 83.1291 72.0043 82.2944 73.8871C82.6685 74.0896 82.9997 74.2695 83.2803 74.4225C83.5913 74.5922 83.8448 74.7315 84.0271 74.8331C84.1171 74.8833 84.1972 74.9285 84.261 74.9654C84.2918 74.9833 84.3289 75.005 84.3655 75.0274C84.3834 75.0384 84.411 75.0555 84.4426 75.0763L84.4444 75.0774C84.4626 75.0894 84.5448 75.1433 84.638 75.2197C84.8961 75.4313 85.097 75.6691 85.2493 75.9203C86.7503 72.7716 87.5905 69.2472 87.5905 65.5267C87.5905 52.1703 76.763 41.3428 63.4065 41.3428C50.0501 41.3428 39.2226 52.1703 39.2226 65.5267C39.2226 78.8831 50.0501 89.7106 63.4065 89.7106C65.0935 89.7106 66.7401 89.5379 68.3297 89.2091C68.3122 89.1714 68.2944 89.1328 68.2762 89.0933C67.9721 88.4347 67.5513 87.5126 67.0545 86.4176C66.7451 85.7356 66.4055 84.9852 66.0455 84.1878C65.8342 84.4929 65.6211 84.7642 65.4081 85.0014C64.5849 85.9176 63.9053 86.177 63.4065 86.177C62.9078 86.177 62.2282 85.9176 61.405 85.0014C60.5825 84.0858 59.7608 82.6613 59.0346 80.7504C58.6719 79.7959 58.3416 78.7427 58.0501 77.6053H63.0869C62.5467 76.3988 62.0129 75.2038 61.5085 74.0718H57.318C57.0028 72.138 56.7898 70.0458 56.7012 67.8445H58.7593C58.7487 67.8201 58.7383 67.7959 58.728 67.7722C58.5863 67.4435 58.4704 67.1712 58.3885 66.9725C58.3484 66.8755 58.3103 66.7811 58.2797 66.7006C58.2655 66.6632 58.2443 66.6062 58.2238 66.5436C58.2142 66.5141 58.1961 66.4575 58.1781 66.3873C58.1741 66.3728 58.1061 66.1274 58.1079 65.8211C58.1117 65.1548 58.4065 64.6496 58.4886 64.5095C58.5275 64.4431 58.5696 64.3768 58.6146 64.311H56.6675ZM63.9063 74.0718C64.4174 75.2174 64.9516 76.4118 65.4864 77.6053H68.763C68.4715 78.7427 68.1412 79.7959 67.7785 80.7504C67.6421 81.1092 67.5024 81.4509 67.3599 81.7753C68.7574 84.8777 69.9575 87.5218 70.4881 88.6573C71.2709 88.4179 72.0368 88.1399 72.7836 87.8255C72.9959 87.4673 73.2317 87.0636 73.4631 86.6608L73.4918 86.6109L74.5932 84.6911L76.0432 86.1505C77.6791 85.146 79.1864 83.9523 80.5345 82.5999L78.6484 80.6824L80.5808 79.6031L80.631 79.5751C81.1389 79.291 81.6481 79.0002 82.067 78.7562C82.511 78.4974 82.8539 78.291 82.9855 78.201C83.4881 77.8573 83.6194 77.2165 83.2496 76.9132C83.1686 76.8469 80.9866 75.6646 78.0188 74.0718H73.0719C73.1939 73.2648 73.2988 72.4375 73.386 71.5927C72.2588 70.9911 71.1143 70.3814 69.9996 69.7888C69.8868 71.283 69.716 72.7163 69.4951 74.0718H63.9063ZM66.332 67.8445H61.1474C61.1001 67.7364 61.0545 67.6319 61.0106 67.5312L60.9059 67.2906C60.5222 66.4074 60.2975 65.8729 60.2978 65.8337C60.2984 65.7259 60.4206 65.5175 60.5692 65.3704C60.7181 65.2234 60.9251 65.1036 61.0295 65.1042C61.0703 65.1045 61.6066 65.3729 62.4877 65.8286L62.7092 65.9433C63.6383 66.4253 64.8951 67.0854 66.332 67.8445ZM59.0346 50.303C58.72 51.1308 58.4298 52.0328 58.1682 52.9997L68.6449 52.9997C68.3833 52.0328 68.093 51.1308 67.7785 50.303C67.0523 48.392 66.2306 46.9675 65.4081 46.052C64.5849 45.1357 63.9053 44.8763 63.4065 44.8763C62.9078 44.8763 62.2282 45.1357 61.405 46.052C60.5825 46.9675 59.7608 48.392 59.0346 50.303ZM73.6799 64.311C73.626 61.58 73.3914 58.96 73.0021 56.5332L82.0009 56.5332C83.1514 58.9077 83.8606 61.5358 84.0217 64.311H73.6799ZM71.0816 82.0056C70.6337 83.1843 70.1259 84.2762 69.5577 85.2454C73.8681 83.9022 77.5725 81.1846 80.1578 77.6053H72.4001C72.03 79.198 71.5874 80.6746 71.0816 82.0056ZM79.8247 52.9997C77.2588 49.6419 73.6863 47.0945 69.5576 45.808C70.1259 46.7771 70.6337 47.8691 71.0816 49.0478C71.5396 50.253 71.9457 51.5776 72.2932 52.9997L79.8247 52.9997ZM46.9884 52.9997C49.5543 49.6419 53.1268 47.0945 57.2554 45.808C56.6872 46.7771 56.1794 47.8691 55.7315 49.0478C55.2735 50.253 54.8673 51.5776 54.5199 52.9997L46.9884 52.9997ZM55.7315 82.0056C56.1794 83.1843 56.6872 84.2762 57.2554 85.2454C52.945 83.9022 49.2406 81.1846 46.6553 77.6053H54.413C54.7831 79.198 55.2257 80.6746 55.7315 82.0056ZM53.1649 67.8445C53.2471 70.0133 53.4437 72.1033 53.7412 74.0718H44.6016C43.7211 72.1373 43.1304 70.043 42.8848 67.8445H53.1649Z" fill="white"/>
<path fill-rule="evenodd" clip-rule="evenodd" d="M60.5692 65.3704C60.4205 65.5176 60.2984 65.7259 60.2977 65.8337C60.2962 66.0989 70.5636 88.9772 70.7755 89.2486C71.0677 89.6225 71.7129 89.4976 72.062 88.9993C72.2427 88.7415 72.886 87.6668 73.4918 86.6109L74.5932 84.6911L77.7573 87.8759C79.6188 89.7495 81.0543 91.0615 81.2441 91.0626C81.6663 91.065 84.9403 87.8285 84.9428 87.4063C84.9438 87.2165 83.6485 85.7659 81.7965 83.883L78.6484 80.6824L80.5808 79.6032C81.6436 79.0096 82.7256 78.3787 82.9855 78.2011C83.4881 77.8573 83.6194 77.2165 83.2495 76.9133C82.991 76.7013 61.2977 65.1058 61.0294 65.1043C60.9251 65.1037 60.718 65.2235 60.5692 65.3704Z" fill="white"/>
<path fill-rule="evenodd" clip-rule="evenodd" d="M154.064 53.7102L56.5371 151.237L51.5399 146.24L149.066 48.713L154.064 53.7102Z" fill="white"/>
<path d="M153.64 139.223V126.728H153.187L144.876 147.025L136.565 126.728H136.113V139.223V159.011H131.76V119.548H137.866L144.82 136.961H145.159L152.113 119.548H157.993V159.011H153.64V139.223Z" fill="white"/>
</svg>

<?xml version="1.0" encoding="utf-8"?>
<!-- Generator: Adobe Illustrator 26.0.3, SVG Export Plug-In . SVG Version: 6.00 Build 0)  -->
<svg version="1.1" id="Layer_1" xmlns="http://www.w3.org/2000/svg" xmlns:xlink="http://www.w3.org/1999/xlink" x="0px" y="0px"
	 viewBox="0 0 200 200" style="enable-background:new 0 0 200 200;" xml:space="preserve">
<style type="text/css">
	.st0{fill-rule:evenodd;clip-rule:evenodd;}
</style>
<path class="st0" d="M192.9,7.1H7.1v185.9h185.9V7.1z M0,0v200h200V0H0z"/>
<path class="st0" d="M42.8,64.3c0.2-2.8,0.9-5.4,2-7.8h9c-0.4,2.4-0.6,5-0.7,7.8H42.8z M56.7,64.3c0.1-2.8,0.3-5.4,0.7-7.8h12
	c0.4,2.4,0.7,5,0.7,7.8h-5.8c0.4,0.2,0.8,0.4,1.3,0.7c2.1,1.1,4.8,2.6,7.6,4c0.1,0.1,0.3,0.1,0.4,0.2c0-0.5,0.1-0.9,0.1-1.4h10.3
	c-0.2,2.1-0.8,4.2-1.6,6c0.4,0.2,0.7,0.4,1,0.5c0.3,0.2,0.6,0.3,0.7,0.4c0.1,0.1,0.2,0.1,0.2,0.1c0,0,0.1,0,0.1,0.1c0,0,0,0,0.1,0
	l0,0c0,0,0.1,0.1,0.2,0.1c0.3,0.2,0.5,0.4,0.6,0.7c1.5-3.1,2.3-6.7,2.3-10.4c0-13.4-10.8-24.2-24.2-24.2
	c-13.4,0-24.2,10.8-24.2,24.2s10.8,24.2,24.2,24.2c1.7,0,3.3-0.2,4.9-0.5c0,0,0-0.1-0.1-0.1c-0.3-0.7-0.7-1.6-1.2-2.7
	c-0.3-0.7-0.6-1.4-1-2.2c-0.2,0.3-0.4,0.6-0.6,0.8c-0.8,0.9-1.5,1.2-2,1.2c-0.5,0-1.2-0.3-2-1.2c-0.8-0.9-1.6-2.3-2.4-4.3
	c-0.4-1-0.7-2-1-3.1h5c-0.5-1.2-1.1-2.4-1.6-3.5h-4.2c-0.3-1.9-0.5-4-0.6-6.2h2.1c0,0,0,0,0-0.1c-0.1-0.3-0.3-0.6-0.3-0.8
	c0-0.1-0.1-0.2-0.1-0.3c0,0,0-0.1-0.1-0.2c0,0,0-0.1,0-0.2c0,0-0.1-0.3-0.1-0.6c0-0.7,0.3-1.2,0.4-1.3c0-0.1,0.1-0.1,0.1-0.2H56.7z
	 M63.9,74.1c0.5,1.1,1,2.3,1.6,3.5h3.3c-0.3,1.1-0.6,2.2-1,3.1c-0.1,0.4-0.3,0.7-0.4,1c1.4,3.1,2.6,5.7,3.1,6.9
	c0.8-0.2,1.5-0.5,2.3-0.8c0.2-0.4,0.4-0.8,0.7-1.2l0,0l1.1-1.9l1.4,1.5c1.6-1,3.1-2.2,4.5-3.6l-1.9-1.9l1.9-1.1l0.1,0
	c0.5-0.3,1-0.6,1.4-0.8c0.4-0.3,0.8-0.5,0.9-0.6c0.5-0.3,0.6-1,0.3-1.3c-0.1-0.1-2.3-1.2-5.2-2.8h-4.9c0.1-0.8,0.2-1.6,0.3-2.5
	c-1.1-0.6-2.3-1.2-3.4-1.8c-0.1,1.5-0.3,2.9-0.5,4.3H63.9z M66.3,67.8h-5.2c0-0.1-0.1-0.2-0.1-0.3l-0.1-0.2
	c-0.4-0.9-0.6-1.4-0.6-1.5c0-0.1,0.1-0.3,0.3-0.5c0.1-0.1,0.4-0.3,0.5-0.3c0,0,0.6,0.3,1.5,0.7l0.2,0.1
	C63.6,66.4,64.9,67.1,66.3,67.8z M59,50.3c-0.3,0.8-0.6,1.7-0.9,2.7h10.5c-0.3-1-0.6-1.9-0.9-2.7c-0.7-1.9-1.5-3.3-2.4-4.3
	c-0.8-0.9-1.5-1.2-2-1.2c-0.5,0-1.2,0.3-2,1.2C60.6,47,59.8,48.4,59,50.3z M73.7,64.3c-0.1-2.7-0.3-5.4-0.7-7.8h9
	c1.2,2.4,1.9,5,2,7.8H73.7z M71.1,82c-0.4,1.2-1,2.3-1.5,3.2c4.3-1.3,8-4.1,10.6-7.6h-7.8C72,79.2,71.6,80.7,71.1,82z M79.8,53
	c-2.6-3.4-6.1-5.9-10.3-7.2c0.6,1,1.1,2.1,1.5,3.2c0.5,1.2,0.9,2.5,1.2,4H79.8z M47,53c2.6-3.4,6.1-5.9,10.3-7.2
	c-0.6,1-1.1,2.1-1.5,3.2c-0.5,1.2-0.9,2.5-1.2,4H47z M55.7,82c0.4,1.2,1,2.3,1.5,3.2c-4.3-1.3-8-4.1-10.6-7.6h7.8
	C54.8,79.2,55.2,80.7,55.7,82z M53.2,67.8c0.1,2.2,0.3,4.3,0.6,6.2h-9.1c-0.9-1.9-1.5-4-1.7-6.2H53.2z"/>
<path class="st0" d="M60.6,65.4c-0.1,0.1-0.3,0.4-0.3,0.5c0,0.3,10.3,23.1,10.5,23.4c0.3,0.4,0.9,0.2,1.3-0.2
	c0.2-0.3,0.8-1.3,1.4-2.4l1.1-1.9l3.2,3.2c1.9,1.9,3.3,3.2,3.5,3.2c0.4,0,3.7-3.2,3.7-3.7c0-0.2-1.3-1.6-3.1-3.5l-3.1-3.2l1.9-1.1
	c1.1-0.6,2.1-1.2,2.4-1.4c0.5-0.3,0.6-1,0.3-1.3C83,76.7,61.3,65.1,61,65.1C60.9,65.1,60.7,65.2,60.6,65.4z"/>
<path class="st0" d="M154.1,53.7l-97.5,97.5l-5-5l97.5-97.5L154.1,53.7z"/>
<path d="M153.6,139.2v-12.5h-0.5l-8.3,20.3l-8.3-20.3h-0.5v12.5V159h-4.4v-39.5h6.1l7,17.4h0.3l7-17.4h5.9V159h-4.4V139.2z"/>
</svg>
